X: 2072
T: The Brauls.
C: by Monsieur Peasable.
%R: branle
B: Henry Playford "Apollo's Banquet", London 1687 (5th Edition)
F: https://archive.org/details/apollosbanquetco01rugg
Z: 2017 John Chambers <jc:trillian.mit.edu>
M: C
L: 1/8
K: C
% - - - - - - - - - -
c |\
c3d d3(c/d/) | e4 zdcB | A2d2 d3c | B2G2 c3d |\
e2(fg) e3d | d4 zdef | g2e2 f3g | a4 f3e |\
d2g2 c3d | B2G2 g3g |
f3e d3c | c6 |[| G2 |\
c3_B _B3A | A6 fe | d2 e2 ^c3d | f2A2 a3a |\
g3f e3d | d6 AB | c3d e3f | g4 e3e |
a2g2 f3e | d2B2 c3d | e2fg d3c | c6 |]|\
[M:3/4]"_Leading Braul."\
c3 c d2 | e2 d3c | B3 B c2 | d2 e3f |\
d3 d e2 | f2 ^f3 (e/f/) |
g3 B c2 | BA A3 G |\
G3 c d2 | e2 d3 c | B3 B c2 | d2 e3 f |\
d3 d e2 | (fg) g3 (f/g/) | a3 A B2 | c2 c3 B | c6 |]
[|\
G2 c2 d2 | B3 c d2 | e2 f3 e | d2 c2 e2 |\
ef f3 (e/f/) | g6 | G2 c2 d2 | B3 c d2 |\
e2 f3 e | d2 e2 AB | c2 c3 B | c6 |
!segno!|\
e2 B2 d2 | c3 B A2 | f2 e3 d | ^c3 c d2 |\
e2 e3 d | d6 | d2 g3 f | e3 d cB |\
A2 d3 c | B2 G2 c2 | d2 d3 c | Hc6 |]
% - - - - - - - - - -

%%sep 1 1 500
%%sep 1 1 500

